assets/images/flags/4x3/gb.svg

<?xml version="1.0" encoding="UTF-8" standalone="no"?>
<!-- Created with Sodipodi ("http://www.sodipodi.com/") -->
<!-- /Creative Commons Public Domain -->
<!--

<rdf:RDF xmlns="http://web.resource.org/cc/"
     xmlns:dc="http://purl.org/dc/elements/1.1/"
     xmlns:rdf="http://www.w3.org/1999/02/22-rdf-syntax-ns#">
<Work rdf:about="">
    <dc:title>New Zealand, Australia, United Kingdom, United States,
Bosnia and Herzegovina, Azerbaijan, Armenia, Bahamas, Belgium, Benin,
Bulgaria, Estonia, Finland, Gabon, Gambia, Germany, Greece, Greenland,
Guinea, Honduras, Israel, Jamaica, Jordan, and Romania Flags</dc:title>
    <dc:rights><Agent>
       <dc:title>Daniel McRae</dc:title>
    </Agent></dc:rights>
    <license rdf:resource="http://web.resource.org/cc/PublicDomain" />
</Work>

<License rdf:about="http://web.resource.org/cc/PublicDomain">
    <permits rdf:resource="http://web.resource.org/cc/Reproduction" />
    <permits rdf:resource="http://web.resource.org/cc/Distribution" />
    <permits rdf:resource="http://web.resource.org/cc/DerivativeWorks" />
</License>
</rdf:RDF>
-->
<svg id="svg1" xmlns:rdf="http://www.w3.org/1999/02/22-rdf-syntax-ns#" xmlns="http://www.w3.org/2000/svg" height="480" width="640" version="1.1" xmlns:cc="http://creativecommons.org/ns#" xmlns:dc="http://purl.org/dc/elements/1.1/">
 <metadata id="metadata2995">
  <rdf:RDF>
   <cc:Work rdf:about="">
    <dc:format>image/svg+xml</dc:format>
    <dc:type rdf:resource="http://purl.org/dc/dcmitype/StillImage"/>
   </cc:Work>
  </rdf:RDF>
 </metadata>
 <defs id="defs3">
  <clipPath id="clipPath8673" clipPathUnits="userSpaceOnUse">
   <rect id="rect8675" fill-opacity="0.67" height="512" width="682.67" y="-.0000028613" x="-85.333"/>
  </clipPath>
 </defs>
 <g id="flag" clip-path="url(#clipPath8673)" transform="matrix(.93750 0 0 .93750 80 .0000026825)">
  <g id="g578" stroke-width="1pt" transform="matrix(17.067 0 0 17.067 -256 -0.0000024)">
   <rect id="rect124" height="30" width="60" y="0" x="0" fill="#006"/>
   <g id="g584">
    <path id="path146" d="m0 0v3.3541l53.292 26.646h6.708v-3.354l-53.292-26.646h-6.708zm60 0v3.354l-53.292 26.646h-6.708v-3.354l53.292-26.646h6.708z" fill="#fff"/>
    <path id="path136" d="m25 0v30h10v-30h-10zm-25 10v10h60v-10h-60z" fill="#fff"/>
    <path id="path141" d="m0 12v6h60v-6h-60zm27-12v30h6v-30h-6z" fill="#c00"/>
    <path id="path150" d="m0 30 20-10h4.472l-20 10h-4.472zm0-30 20 10h-4.472l-15.528-7.7639v-2.2361zm35.528 10 20-10h4.472l-20 10h-4.472zm24.472 20-20-10h4.472l15.528 7.764v2.236z" fill="#c00"/>
   </g>
  </g>
 </g>
</svg>

<svg id="svg1" xmlns="http://www.w3.org/2000/svg" height="480" width="640" version="1.1"><defs id="defs3"><clipPath id="clipPath8673" clipPathUnits="userSpaceOnUse"><path id="rect8675" fill-opacity=".67" d="M-85.333 0h682.67v512h-682.67z"/></clipPath></defs><g id="flag" clip-path="url(#clipPath8673)" transform="translate(80) scale(.9375)"><g id="g578" stroke-width="1pt" transform="translate(-256) scale(17.067)"><path id="rect124" fill="#006" d="M0 0h60v30H0z"/><g id="g584"><path id="path146" d="M0 0v3.354L53.292 30H60v-3.354L6.708 0H0zm60 0v3.354L6.708 30H0v-3.354L53.292 0H60z" fill="#fff"/><path id="path136" d="M25 0v30h10V0H25zM0 10v10h60V10H0z" fill="#fff"/><path id="path141" d="M0 12v6h60v-6H0zM27 0v30h6V0h-6z" fill="#c00"/><path id="path150" d="M0 30l20-10h4.472l-20 10H0zM0 0l20 10h-4.472L0 2.236V0zm35.528 10l20-10H60L40 10h-4.472zM60 30L40 20h4.472L60 27.764V30z" fill="#c00"/></g></g></g></svg>
